icons/hcl.svg

<svg style="clip-rule:evenodd;fill-rule:evenodd;stroke-linejoin:round;stroke-miterlimit:1.4142" version="1.1" viewBox="0 0 24 24" xml:space="preserve" xmlns="http://www.w3.org/2000/svg"><g id="Logo" transform="matrix(.17279 0 0 .17279 2.7644 2.2287)" style="fill:#eceff1"><path d="m44.5 0-44.5 25.7v61.7l16.7 9.7v-61.8l27.8-16z" style="fill-rule:nonzero;fill:#eceff1"/><path d="m62.3 0v49.2h-17.8v-18.4l-16.7 9.7v62.9l16.7 9.7v-49h17.8v18.2l16.8-9.6v-63z" style="fill-rule:nonzero;fill:#eceff1"/><path d="m62.3 113.1 44.6-25.7v-61.7l-16.8-9.6v61.7l-27.8 16z" style="fill-rule:nonzero;fill:#eceff1"/></g></svg>

<?xml version="1.0" encoding="UTF-8" standalone="no"?>
<!DOCTYPE svg PUBLIC "-//W3C//DTD SVG 1.1//EN" "http://www.w3.org/Graphics/SVG/1.1/DTD/svg11.dtd">
<svg width="100%" height="100%" viewBox="0 0 24 24" version="1.1" xmlns="http://www.w3.org/2000/svg" xmlns:xlink="http://www.w3.org/1999/xlink" xml:space="preserve" xmlns:serif="http://www.serif.com/" style="fill-rule:evenodd;clip-rule:evenodd;stroke-linejoin:round;stroke-miterlimit:1.41421;">
    <g id="Logo" transform="matrix(0.188962,0,0,0.188962,1.9,1.31422)">
        <path d="M44.5,0L0,25.7L0,87.4L16.7,97.1L16.7,35.3L44.5,19.3L44.5,0Z" style="fill:white;fill-rule:nonzero;"/>
        <path d="M62.3,0L62.3,49.2L44.5,49.2L44.5,30.8L27.8,40.5L27.8,103.4L44.5,113.1L44.5,64.1L62.3,64.1L62.3,82.3L79.1,72.7L79.1,9.7L62.3,0Z" style="fill:white;fill-rule:nonzero;"/>
        <path d="M62.3,113.1L106.9,87.4L106.9,25.7L90.1,16.1L90.1,77.8L62.3,93.8L62.3,113.1Z" style="fill:white;fill-rule:nonzero;"/>
    </g>
</svg>
